IMPUITest/macos/IMPCurveTest/IMPCurveTest/Luts/K64PW.cube
# Generated by IMPCLut v.1.0
TITLE "K64PW"
#LUT size
LUT_3D_SIZE 5
#Data domain
DOMAIN_MIN 0.0 0.0 0.0
DOMAIN_MAX 1.0 1.0 1.0
#LUT data points
0.00392157 0.0 0.0
0.235294 0.0235294 0.00392157
0.509804 0.00392157 0.00392157
0.752941 0.00784314 0.00392157
0.945098 0.0745098 0.0117647
0.00784314 0.14902 0.0235294
0.243137 0.145098 0.0
0.505882 0.160784 0.0
0.745098 0.196078 0.0
0.945098 0.258824 0.0
0.0117647 0.34902 0.0156863
0.215686 0.360784 0.0
0.494118 0.352941 0.00392157
0.72549 0.396078 0.00392157
0.921569 0.435294 0.0
0.0156863 0.576471 0.101961
0.0588235 0.596078 0.0352941
0.478431 0.580392 0.0
0.705882 0.584314 0.0
0.890196 0.603922 0.0
0.32549 0.803922 0.380392
0.407843 0.803922 0.329412
0.545098 0.796078 0.196078
0.701961 0.772549 0.0
0.878431 0.764706 0.0
0.027451 0.0235294 0.105882
0.176471 0.0470588 0.0941176
0.45098 0.0588235 0.109804
0.733333 0.0941176 0.12549
0.952941 0.176471 0.141176
0.0352941 0.14902 0.117647
0.290196 0.227451 0.180392
0.556863 0.247059 0.180392
0.784314 0.282353 0.172549
0.976471 0.333333 0.180392
0.0313725 0.364706 0.145098
0.254902 0.439216 0.215686
0.52549 0.435294 0.172549
0.756863 0.466667 0.168627
0.952941 0.501961 0.168627
0.027451 0.576471 0.172549
0.14902 0.631373 0.227451
0.501961 0.635294 0.176471
0.721569 0.639216 0.168627
0.921569 0.658824 0.156863
0.254902 0.811765 0.407843
0.360784 0.823529 0.396078
0.513725 0.819608 0.294118
0.709804 0.811765 0.215686
0.901961 0.803922 0.164706
0.0 0.054902 0.294118
0.133333 0.0627451 0.278431
0.384314 0.0980392 0.215686
0.67451 0.141176 0.247059
0.901961 0.243137 0.301961
0.0 0.172549 0.309804
0.231373 0.239216 0.384314
0.490196 0.278431 0.32549
0.737255 0.329412 0.341176
0.937255 0.403922 0.392157
0.0 0.372549 0.305882
0.321569 0.435294 0.372549
0.568627 0.529412 0.478431
0.792157 0.556863 0.478431
0.968627 0.584314 0.478431
0.0 0.592157 0.368627
0.278431 0.639216 0.431373
0.533333 0.713725 0.517647
0.756863 0.717647 0.501961
0.945098 0.737255 0.501961
0.0156863 0.8 0.482353
0.243137 0.831373 0.52549
0.513725 0.866667 0.572549
0.741176 0.870588 0.533333
0.921569 0.862745 0.513725
0.0235294 0.0470588 0.560784
0.00784314 0.0627451 0.556863
0.34902 0.109804 0.470588
0.619608 0.168627 0.411765
0.843137 0.278431 0.458824
0.0235294 0.196078 0.607843
0.0901961 0.25098 0.654902
0.435294 0.282353 0.580392
0.678431 0.341176 0.509804
0.878431 0.427451 0.541176
0.027451 0.403922 0.568627
0.176471 0.466667 0.627451
0.494118 0.545098 0.709804
0.737255 0.572549 0.643137
0.941176 0.611765 0.654902
0.027451 0.6 0.560784
0.317647 0.647059 0.603922
0.572549 0.709804 0.678431
0.792157 0.784314 0.772549
0.992157 0.803922 0.768627
0.0235294 0.792157 0.603922
0.333333 0.823529 0.65098
0.568627 0.870588 0.721569
0.776471 0.929412 0.807843
0.960784 0.929412 0.788235
0.0 0.0352941 0.831373
0.0 0.0705882 0.811765
0.305882 0.0980392 0.713725
0.596078 0.192157 0.635294
0.788235 0.317647 0.627451
0.00392157 0.231373 0.854902
0.0 0.266667 0.854902
0.356863 0.301961 0.811765
0.631373 0.356863 0.737255
0.823529 0.443137 0.682353
0.0 0.443137 0.811765
0.0 0.494118 0.858824
0.403922 0.552941 0.913725
0.67451 0.580392 0.847059
0.870588 0.623529 0.796078
0.0 0.627451 0.772549
0.172549 0.666667 0.819608
0.47451 0.729412 0.890196
0.713725 0.796078 0.952941
0.929412 0.819608 0.901961
0.0588235 0.792157 0.752941
0.34902 0.823529 0.803922
0.584314 0.870588 0.866667
0.8 0.933333 0.92549
0.988235 0.988235 0.980392
