IMPUITest/macos/IMPCurveTest/IMPCurveTest/Luts/K64PW.cube
# Generated by IMPCLut v.1.0
TITLE "K64PW"
#LUT size
LUT_3D_SIZE 9
#Data domain
DOMAIN_MIN 0.0 0.0 0.0
DOMAIN_MAX 1.0 1.0 1.0
#LUT data points
0.00392157 0.0 0.0
0.129412 0.0196078 0.0
0.235294 0.0235294 0.00392157
0.356863 0.0156863 0.0
0.509804 0.00392157 0.00392157
0.639216 0.00784314 0.00392157
0.752941 0.00784314 0.00392157
0.862745 0.0196078 0.00784314
0.945098 0.0745098 0.0117647
0.00392157 0.0901961 0.0
0.133333 0.0901961 0.0156863
0.235294 0.0901961 0.0
0.372549 0.0862745 0.0
0.517647 0.0901961 0.0
0.639216 0.0784314 0.0
0.756863 0.105882 0.0
0.858824 0.12549 0.0
0.952941 0.164706 0.0
0.00784314 0.14902 0.0235294
0.129412 0.152941 0.0235294
0.243137 0.145098 0.0
0.368627 0.156863 0.0
0.505882 0.160784 0.0
0.631373 0.176471 0.00392157
0.745098 0.196078 0.0
0.854902 0.223529 0.0
0.945098 0.258824 0.0
0.00392157 0.239216 0.0352941
0.109804 0.25098 0.0235294
0.243137 0.25098 0.0156863
0.368627 0.243137 0.0
0.501961 0.254902 0.00392157
0.627451 0.270588 0.0
0.733333 0.290196 0.00392157
0.843137 0.313725 0.0
0.929412 0.352941 0.00392157
0.0117647 0.34902 0.0156863
0.0 0.360784 0.00392157
0.215686 0.360784 0.0
0.364706 0.352941 0.0
0.494118 0.352941 0.00392157
0.615686 0.372549 0.0
0.72549 0.396078 0.00392157
0.823529 0.419608 0.0
0.921569 0.435294 0.0
0.0156863 0.454902 0.00784314
0.0 0.47451 0.00392157
0.152941 0.482353 0.0
0.34902 0.482353 0.0
0.486275 0.47451 0.00392157
0.596078 0.47451 0.0
0.709804 0.490196 0.0
0.811765 0.509804 0.00392157
0.909804 0.521569 0.0
0.0156863 0.576471 0.101961
0.0 0.588235 0.0823529
0.0588235 0.596078 0.0352941
0.313725 0.592157 0.0
0.478431 0.580392 0.0
0.596078 0.580392 0.00392157
0.705882 0.584314 0.0
0.807843 0.592157 0.0
0.890196 0.603922 0.0
0.0235294 0.701961 0.239216
0.141176 0.709804 0.227451
0.262745 0.713725 0.188235
0.376471 0.701961 0.0980392
0.466667 0.694118 0.00392157
0.588235 0.67451 0.0
0.690196 0.67451 0.0
0.792157 0.682353 0.0
0.886275 0.682353 0.0
0.32549 0.803922 0.380392
0.356863 0.811765 0.368627
0.407843 0.803922 0.329412
0.478431 0.803922 0.266667
0.545098 0.796078 0.196078
0.615686 0.784314 0.105882
0.701961 0.772549 0.0
0.792157 0.764706 0.0
0.878431 0.764706 0.0
0.027451 0.0117647 0.0627451
0.101961 0.0313725 0.0588235
0.203922 0.0431373 0.054902
0.345098 0.0352941 0.0627451
0.494118 0.0352941 0.0666667
0.643137 0.0235294 0.0705882
0.760784 0.0666667 0.0666667
0.878431 0.0901961 0.0627451
0.952941 0.129412 0.054902
0.0392157 0.0823529 0.0705882
0.14902 0.117647 0.0901961
0.270588 0.113725 0.0901961
0.4 0.121569 0.0862745
0.537255 0.12549 0.0862745
0.666667 0.129412 0.0784314
0.772549 0.156863 0.0705882
0.886275 0.180392 0.0666667
0.972549 0.203922 0.054902
0.027451 0.152941 0.0784314
0.14902 0.188235 0.0980392
0.266667 0.188235 0.0941176
0.4 0.196078 0.0862745
0.537255 0.2 0.0823529
0.654902 0.215686 0.0705882
0.772549 0.239216 0.0588235
0.87451 0.262745 0.0470588
0.956863 0.290196 0.0431373
0.027451 0.247059 0.0901961
0.117647 0.282353 0.109804
0.254902 0.294118 0.101961
0.396078 0.286275 0.0823529
0.521569 0.298039 0.0705882
0.639216 0.313725 0.0588235
0.756863 0.333333 0.0392157
0.854902 0.352941 0.0156863
0.945098 0.388235 0.0196078
0.027451 0.360784 0.0823529
0.00392157 0.392157 0.0941176
0.227451 0.403922 0.0941176
0.380392 0.4 0.0823529
0.513725 0.4 0.054902
0.631373 0.407843 0.0392157
0.741176 0.431373 0.0196078
0.839216 0.45098 0.00392157
0.933333 0.470588 0.0
0.027451 0.462745 0.0823529
0.0 0.490196 0.105882
0.180392 0.509804 0.105882
0.368627 0.509804 0.0705882
0.501961 0.509804 0.0313725
0.611765 0.505882 0.0
0.721569 0.52549 0.0
0.827451 0.537255 0.0
0.92549 0.54902 0.0
0.027451 0.572549 0.113725
0.00392157 0.592157 0.137255
0.0901961 0.607843 0.12549
0.337255 0.615686 0.0862745
0.486275 0.603922 0.00392157
0.6 0.603922 0.00392157
0.713725 0.607843 0.00392157
0.811765 0.623529 0.0
0.901961 0.631373 0.0
0.027451 0.701961 0.247059
0.0392157 0.709804 0.254902
0.215686 0.717647 0.227451
0.34902 0.717647 0.168627
0.47451 0.709804 0.0745098
0.596078 0.701961 0.00392157
0.705882 0.698039 0.0
0.803922 0.698039 0.0
0.894118 0.705882 0.0
0.298039 0.807843 0.388235
0.329412 0.811765 0.388235
0.392157 0.811765 0.364706
0.462745 0.811765 0.301961
0.533333 0.8 0.235294
0.611765 0.792157 0.141176
0.698039 0.784314 0.0
0.8 0.788235 0.0
0.882353 0.784314 0.0
0.027451 0.0235294 0.105882
0.0823529 0.0392157 0.117647
0.176471 0.0470588 0.0941176
0.298039 0.0509804 0.0980392
0.45098 0.0588235 0.109804
0.596078 0.0666667 0.113725
0.733333 0.0941176 0.12549
0.85098 0.129412 0.137255
0.952941 0.176471 0.141176
0.027451 0.0941176 0.113725
0.145098 0.121569 0.14902
0.239216 0.129412 0.137255
0.376471 0.141176 0.137255
0.521569 0.145098 0.141176
0.65098 0.156863 0.145098
0.776471 0.184314 0.152941
0.890196 0.219608 0.164706
0.972549 0.25098 0.164706
0.0352941 0.14902 0.117647
0.172549 0.184314 0.152941
0.290196 0.227451 0.180392
0.427451 0.231373 0.176471
0.556863 0.247059 0.180392
0.678431 0.258824 0.168627
0.784314 0.282353 0.172549
0.894118 0.309804 0.180392
0.976471 0.333333 0.180392
0.027451 0.25098 0.133333
0.156863 0.286275 0.160784
0.286275 0.329412 0.192157
0.415686 0.329412 0.180392
0.541176 0.341176 0.168627
0.666667 0.360784 0.168627
0.772549 0.372549 0.164706
0.878431 0.396078 0.168627
0.964706 0.427451 0.180392
0.0313725 0.364706 0.145098
0.0862745 0.4 0.176471
0.254902 0.439216 0.215686
0.4 0.447059 0.207843
0.52549 0.435294 0.172549
0.643137 0.45098 0.164706
0.756863 0.466667 0.168627
0.858824 0.486275 0.168627
0.952941 0.501961 0.168627
0.027451 0.470588 0.152941
0.0 0.505882 0.172549
0.215686 0.541176 0.207843
0.376471 0.552941 0.203922
0.517647 0.545098 0.184314
0.627451 0.545098 0.168627
0.737255 0.552941 0.156863
0.847059 0.568627 0.164706
0.937255 0.580392 0.164706
0.027451 0.576471 0.172549
0.0 0.6 0.203922
0.14902 0.631373 0.227451
0.372549 0.639216 0.207843
0.501961 0.635294 0.176471
0.619608 0.639216 0.180392
0.721569 0.639216 0.168627
0.835294 0.65098 0.176471
0.921569 0.658824 0.156863
0.027451 0.698039 0.270588
0.0 0.713725 0.278431
0.133333 0.729412 0.282353
0.329412 0.737255 0.270588
0.482353 0.733333 0.235294
0.607843 0.729412 0.2
0.713725 0.729412 0.176471
0.815686 0.72549 0.160784
0.909804 0.729412 0.145098
0.254902 0.811765 0.407843
0.298039 0.815686 0.411765
0.360784 0.823529 0.396078
0.435294 0.819608 0.352941
0.513725 0.819608 0.294118
0.607843 0.811765 0.247059
0.709804 0.811765 0.215686
0.811765 0.803922 0.184314
0.901961 0.803922 0.164706
0.0 0.0509804 0.188235
0.0588235 0.0470588 0.180392
0.160784 0.0588235 0.160784
0.266667 0.0745098 0.145098
0.419608 0.0823529 0.145098
0.564706 0.0901961 0.164706
0.705882 0.117647 0.180392
0.827451 0.164706 0.196078
0.937255 0.211765 0.223529
0.0 0.0980392 0.196078
0.109804 0.121569 0.231373
0.215686 0.141176 0.211765
0.337255 0.14902 0.188235
0.470588 0.160784 0.184314
0.611765 0.180392 0.2
0.741176 0.203922 0.219608
0.854902 0.247059 0.235294
0.945098 0.282353 0.254902
0.00784314 0.164706 0.188235
0.14902 0.2 0.227451
0.270588 0.239216 0.254902
0.392157 0.25098 0.243137
0.52549 0.262745 0.239216
0.65098 0.290196 0.254902
0.772549 0.313725 0.270588
0.882353 0.341176 0.278431
0.956863 0.376471 0.294118
0.00392157 0.25098 0.196078
0.180392 0.282353 0.223529
0.301961 0.32549 0.262745
0.439216 0.380392 0.313725
0.564706 0.392157 0.305882
0.682353 0.403922 0.305882
0.796078 0.419608 0.309804
0.898039 0.439216 0.309804
0.960784 0.470588 0.333333
0.00392157 0.368627 0.219608
0.168627 0.4 0.247059
0.298039 0.443137 0.290196
0.427451 0.482353 0.337255
0.54902 0.486275 0.309804
0.662745 0.501961 0.309804
0.776471 0.509804 0.305882
0.878431 0.529412 0.317647
0.960784 0.545098 0.32549
0.0 0.486275 0.235294
0.0313725 0.509804 0.262745
0.262745 0.552941 0.309804
0.4 0.584314 0.356863
0.533333 0.588235 0.34902
0.65098 0.584314 0.313725
0.756863 0.6 0.321569
0.866667 0.607843 0.317647
0.945098 0.623529 0.329412
0.0 0.592157 0.270588
0.0 0.615686 0.294118
0.223529 0.647059 0.321569
0.384314 0.678431 0.364706
0.517647 0.678431 0.364706
0.635294 0.67451 0.341176
0.741176 0.682353 0.341176
0.847059 0.690196 0.333333
0.933333 0.698039 0.333333
0.0 0.694118 0.329412
0.0 0.717647 0.352941
0.129412 0.741176 0.380392
0.352941 0.760784 0.407843
0.505882 0.772549 0.388235
0.623529 0.764706 0.360784
0.729412 0.760784 0.341176
0.831373 0.764706 0.329412
0.92549 0.768627 0.337255
0.176471 0.815686 0.447059
0.223529 0.819608 0.45098
0.286275 0.831373 0.45098
0.4 0.835294 0.443137
0.501961 0.843137 0.419608
0.611765 0.839216 0.403922
0.72549 0.835294 0.380392
0.831373 0.831373 0.341176
0.909804 0.831373 0.337255
0.0 0.054902 0.294118
0.00392157 0.0509804 0.298039
0.133333 0.0627451 0.278431
0.258824 0.0784314 0.231373
0.384314 0.0980392 0.215686
0.533333 0.109804 0.219608
0.67451 0.141176 0.247059
0.796078 0.192157 0.27451
0.901961 0.243137 0.301961
0.0 0.109804 0.32549
0.0470588 0.129412 0.352941
0.184314 0.141176 0.32549
0.321569 0.152941 0.286275
0.439216 0.176471 0.270588
0.572549 0.196078 0.266667
0.701961 0.219608 0.286275
0.823529 0.266667 0.309804
0.917647 0.309804 0.341176
0.0 0.172549 0.309804
0.0823529 0.207843 0.352941
0.231373 0.239216 0.384314
0.368627 0.262745 0.352941
0.490196 0.278431 0.32549
0.611765 0.301961 0.32549
0.737255 0.329412 0.341176
0.85098 0.356863 0.364706
0.937255 0.403922 0.392157
0.0 0.262745 0.309804
0.133333 0.298039 0.333333
0.270588 0.345098 0.384314
0.411765 0.388235 0.415686
0.529412 0.403922 0.396078
0.65098 0.423529 0.396078
0.768627 0.439216 0.407843
0.882353 0.466667 0.423529
0.956863 0.494118 0.439216
0.0 0.372549 0.305882
0.180392 0.403922 0.333333
0.321569 0.435294 0.372549
0.443137 0.482353 0.419608
0.568627 0.529412 0.478431
0.682353 0.541176 0.466667
0.792157 0.556863 0.478431
0.890196 0.572549 0.47451
0.968627 0.584314 0.478431
0.0 0.486275 0.341176
0.156863 0.509804 0.364706
0.313725 0.541176 0.4
0.439216 0.580392 0.447059
0.552941 0.627451 0.498039
0.666667 0.627451 0.482353
0.776471 0.639216 0.478431
0.878431 0.65098 0.482353
0.956863 0.662745 0.494118
0.0 0.592157 0.368627
0.101961 0.615686 0.403922
0.278431 0.639216 0.431373
0.419608 0.678431 0.478431
0.533333 0.713725 0.517647
0.65098 0.721569 0.513725
0.756863 0.717647 0.501961
0.862745 0.729412 0.498039
0.945098 0.737255 0.501961
0.0 0.701961 0.415686
0.00392157 0.717647 0.443137
0.25098 0.745098 0.47451
0.407843 0.772549 0.505882
0.521569 0.8 0.541176
0.631373 0.8 0.52549
0.74902 0.796078 0.490196
0.85098 0.8 0.501961
0.937255 0.807843 0.509804
0.0156863 0.8 0.482353
0.054902 0.815686 0.501961
0.243137 0.831373 0.52549
0.392157 0.85098 0.552941
0.513725 0.866667 0.572549
0.627451 0.870588 0.556863
0.741176 0.870588 0.533333
0.85098 0.858824 0.509804
0.921569 0.862745 0.513725
0.00784314 0.0588235 0.407843
0.00784314 0.0509804 0.423529
0.0784314 0.0627451 0.415686
0.235294 0.0823529 0.34902
0.368627 0.109804 0.337255
0.505882 0.121569 0.294118
0.639216 0.160784 0.321569
0.760784 0.207843 0.34902
0.870588 0.258824 0.384314
0.00784314 0.109804 0.470588
0.0 0.129412 0.486275
0.145098 0.141176 0.462745
0.290196 0.152941 0.419608
0.423529 0.180392 0.380392
0.54902 0.2 0.360784
0.670588 0.239216 0.368627
0.792157 0.278431 0.392157
0.886275 0.329412 0.427451
0.00784314 0.184314 0.466667
0.0 0.215686 0.498039
0.172549 0.247059 0.529412
0.329412 0.262745 0.490196
0.466667 0.27451 0.439216
0.584314 0.305882 0.419608
0.701961 0.341176 0.423529
0.815686 0.368627 0.443137
0.913725 0.415686 0.466667
0.0117647 0.278431 0.443137
0.0196078 0.309804 0.470588
0.2 0.352941 0.521569
0.368627 0.388235 0.564706
0.501961 0.407843 0.517647
0.619608 0.427451 0.486275
0.733333 0.45098 0.494118
0.843137 0.478431 0.509804
0.937255 0.505882 0.521569
0.0156863 0.384314 0.435294
0.0980392 0.411765 0.462745
0.254902 0.45098 0.501961
0.407843 0.498039 0.545098
0.533333 0.537255 0.592157
0.647059 0.552941 0.564706
0.764706 0.568627 0.564706
0.870588 0.588235 0.576471
0.976471 0.603922 0.584314
0.0156863 0.490196 0.443137
0.160784 0.513725 0.466667
0.321569 0.541176 0.490196
0.454902 0.576471 0.529412
0.568627 0.623529 0.588235
0.682353 0.662745 0.631373
0.792157 0.67451 0.631373
0.905882 0.682353 0.635294
0.992157 0.698039 0.631373
0.0196078 0.588235 0.470588
0.156863 0.615686 0.501961
0.321569 0.639216 0.52549
0.458824 0.670588 0.552941
0.568627 0.709804 0.611765
0.666667 0.745098 0.65098
0.776471 0.752941 0.643137
0.87451 0.760784 0.639216
0.976471 0.772549 0.643137
0.0235294 0.698039 0.501961
0.113725 0.717647 0.521569
0.294118 0.733333 0.556863
0.435294 0.760784 0.592157
0.54902 0.796078 0.635294
0.647059 0.831373 0.670588
0.764706 0.827451 0.658824
0.866667 0.831373 0.65098
0.964706 0.843137 0.658824
0.0235294 0.796078 0.541176
0.145098 0.815686 0.560784
0.305882 0.827451 0.592157
0.435294 0.85098 0.627451
0.54902 0.87451 0.662745
0.65098 0.901961 0.694118
0.74902 0.905882 0.690196
0.862745 0.898039 0.647059
0.945098 0.898039 0.65098
0.0235294 0.0470588 0.560784
0.0117647 0.0470588 0.584314
0.00784314 0.0627451 0.556863
0.207843 0.0784314 0.482353
0.34902 0.109804 0.470588
0.490196 0.12549 0.423529
0.619608 0.168627 0.411765
0.745098 0.215686 0.427451
0.843137 0.278431 0.458824
0.0235294 0.113725 0.619608
0.0 0.129412 0.615686
0.101961 0.133333 0.572549
0.258824 0.152941 0.552941
0.4 0.180392 0.517647
0.529412 0.207843 0.478431
0.65098 0.243137 0.458824
0.760784 0.290196 0.47451
0.858824 0.345098 0.498039
0.0235294 0.196078 0.607843
0.00392157 0.223529 0.639216
0.0901961 0.25098 0.654902
0.278431 0.266667 0.623529
0.435294 0.282353 0.580392
0.564706 0.313725 0.541176
0.678431 0.341176 0.509804
0.784314 0.384314 0.529412
0.878431 0.427451 0.541176
0.0235294 0.294118 0.580392
0.0 0.32549 0.611765
0.113725 0.368627 0.654902
0.313725 0.4 0.678431
0.466667 0.415686 0.65098
0.603922 0.435294 0.603922
0.701961 0.454902 0.572549
0.807843 0.486275 0.580392
0.905882 0.513725 0.596078
0.027451 0.403922 0.568627
0.0 0.431373 0.588235
0.176471 0.466667 0.627451
0.345098 0.505882 0.67451
0.494118 0.545098 0.709804
0.623529 0.556863 0.670588
0.737255 0.572549 0.643137
0.831373 0.596078 0.639216
0.941176 0.611765 0.654902
0.0235294 0.501961 0.552941
0.0470588 0.52549 0.580392
0.25098 0.556863 0.611765
0.4 0.592157 0.654902
0.533333 0.639216 0.698039
0.647059 0.67451 0.737255
0.756863 0.682353 0.709804
0.866667 0.698039 0.709804
0.968627 0.713725 0.721569
0.027451 0.6 0.560784
0.14902 0.619608 0.588235
0.317647 0.647059 0.603922
0.454902 0.678431 0.643137
0.572549 0.709804 0.678431
0.678431 0.752941 0.729412
0.792157 0.784314 0.772549
0.901961 0.792157 0.768627
0.992157 0.803922 0.768627
0.027451 0.694118 0.576471
0.14902 0.717647 0.607843
0.317647 0.737255 0.627451
0.458824 0.764706 0.662745
0.576471 0.796078 0.701961
0.686275 0.831373 0.745098
0.784314 0.866667 0.792157
0.886275 0.866667 0.792157
0.968627 0.87451 0.784314
0.0235294 0.792157 0.603922
0.2 0.807843 0.623529
0.333333 0.823529 0.65098
0.458824 0.847059 0.686275
0.568627 0.870588 0.721569
0.67451 0.901961 0.772549
0.776471 0.929412 0.807843
0.878431 0.929412 0.788235
0.960784 0.929412 0.788235
0.0196078 0.0431373 0.705882
0.0156863 0.0470588 0.717647
0.0117647 0.0627451 0.686275
0.129412 0.0823529 0.65098
0.329412 0.0941176 0.584314
0.47451 0.133333 0.560784
0.607843 0.184314 0.533333
0.721569 0.235294 0.529412
0.811765 0.298039 0.541176
0.0196078 0.121569 0.72549
0.0 0.129412 0.72549
0.0 0.137255 0.694118
0.192157 0.172549 0.690196
0.372549 0.184314 0.647059
0.501961 0.215686 0.611765
0.635294 0.254902 0.564706
0.737255 0.298039 0.568627
0.831373 0.356863 0.572549
0.0196078 0.215686 0.737255
0.0 0.243137 0.760784
0.0 0.262745 0.764706
0.239216 0.27451 0.737255
0.4 0.290196 0.701961
0.533333 0.317647 0.662745
0.654902 0.352941 0.615686
0.760784 0.384314 0.607843
0.847059 0.435294 0.607843
0.0235294 0.313725 0.713725
0.0 0.34902 0.745098
0.0 0.380392 0.776471
0.25098 0.411765 0.788235
0.423529 0.419608 0.764706
0.564706 0.439216 0.721569
0.682353 0.466667 0.686275
0.784314 0.498039 0.666667
0.870588 0.521569 0.658824
0.0235294 0.423529 0.686275
0.0 0.447059 0.709804
0.0156863 0.478431 0.745098
0.286275 0.517647 0.788235
0.447059 0.552941 0.815686
0.584314 0.560784 0.788235
0.705882 0.576471 0.745098
0.815686 0.596078 0.717647
0.909804 0.615686 0.717647
0.0235294 0.517647 0.67451
0.0 0.541176 0.698039
0.172549 0.576471 0.729412
0.34902 0.603922 0.768627
0.482353 0.643137 0.807843
0.607843 0.67451 0.843137
0.72549 0.690196 0.811765
0.839216 0.701961 0.780392
0.92549 0.717647 0.772549
0.0235294 0.615686 0.666667
0.0470588 0.635294 0.686275
0.25098 0.658824 0.717647
0.392157 0.686275 0.74902
0.521569 0.717647 0.796078
0.635294 0.756863 0.839216
0.756863 0.792157 0.866667
0.870588 0.807843 0.843137
0.960784 0.815686 0.843137
0.0235294 0.705882 0.67451
0.129412 0.72549 0.690196
0.305882 0.741176 0.721569
0.45098 0.764706 0.741176
0.576471 0.8 0.772549
0.686275 0.831373 0.815686
0.788235 0.870588 0.862745
0.901961 0.898039 0.901961
0.992157 0.901961 0.886275
0.0745098 0.796078 0.678431
0.231373 0.807843 0.694118
0.34902 0.819608 0.717647
0.47451 0.843137 0.760784
0.580392 0.870588 0.796078
0.690196 0.901961 0.831373
0.8 0.933333 0.87451
0.898039 0.956863 0.905882
0.980392 0.964706 0.909804
0.0 0.0352941 0.831373
0.0 0.0470588 0.835294
0.0 0.0705882 0.811765
0.027451 0.0901961 0.776471
0.305882 0.0980392 0.713725
0.45098 0.14902 0.694118
0.596078 0.192157 0.635294
0.698039 0.25098 0.65098
0.788235 0.317647 0.627451
0.0 0.133333 0.854902
0.0 0.14902 0.847059
0.0 0.160784 0.823529
0.141176 0.172549 0.796078
0.333333 0.188235 0.760784
0.470588 0.223529 0.733333
0.607843 0.266667 0.67451
0.717647 0.317647 0.678431
0.807843 0.372549 0.65098
0.00392157 0.231373 0.854902
0.0 0.258824 0.866667
0.0 0.266667 0.854902
0.180392 0.282353 0.839216
0.356863 0.301961 0.811765
0.505882 0.32549 0.764706
0.631373 0.356863 0.737255
0.733333 0.396078 0.717647
0.823529 0.443137 0.682353
0.0 0.337255 0.831373
0.0 0.364706 0.847059
0.0 0.396078 0.878431
0.164706 0.415686 0.894118
0.388235 0.427451 0.847059
0.52549 0.443137 0.831373
0.647059 0.470588 0.788235
0.760784 0.494118 0.745098
0.847059 0.52549 0.737255
0.0 0.443137 0.811765
0.0 0.458824 0.835294
0.0 0.494118 0.858824
0.223529 0.529412 0.890196
0.403922 0.552941 0.913725
0.537255 0.560784 0.890196
0.67451 0.580392 0.847059
0.784314 0.596078 0.815686
0.870588 0.623529 0.796078
0.0 0.541176 0.784314
0.0 0.560784 0.803922
0.0117647 0.584314 0.839216
0.278431 0.615686 0.87451
0.435294 0.647059 0.909804
0.564706 0.678431 0.929412
0.690196 0.690196 0.913725
0.807843 0.701961 0.870588
0.901961 0.72549 0.835294
0.0 0.627451 0.772549
0.0 0.643137 0.792157
0.172549 0.666667 0.819608
0.341176 0.694118 0.854902
0.47451 0.729412 0.890196
0.596078 0.764706 0.933333
0.713725 0.796078 0.952941
0.827451 0.807843 0.929412
0.929412 0.819608 0.901961
0.0 0.713725 0.760784
0.0509804 0.72549 0.776471
0.266667 0.74902 0.803922
0.403922 0.772549 0.835294
0.533333 0.803922 0.870588
0.65098 0.839216 0.901961
0.760784 0.870588 0.941176
0.858824 0.901961 0.964706
0.956863 0.913725 0.956863
0.0588235 0.792157 0.752941
0.227451 0.807843 0.772549
0.34902 0.823529 0.803922
0.47451 0.843137 0.835294
0.584314 0.870588 0.866667
0.694118 0.905882 0.894118
0.8 0.933333 0.92549
0.909804 0.960784 0.964706
0.988235 0.988235 0.980392
