IMPUITest/macos/IMPCurveTest/IMPCurveTest/Luts/K64PW.cube
# Generated by IMPCLut v.1.0
TITLE "K64PW"
#LUT size
LUT_3D_SIZE 17
#Data domain
DOMAIN_MIN 0.0 0.0 0.0
DOMAIN_MAX 1.0 1.0 1.0
#LUT data points
0.00392157 0.0 0.0
0.0980392 0.00784314 0.0
0.129412 0.0196078 0.0
0.184314 0.0235294 0.0
0.235294 0.0235294 0.00392157
0.301961 0.0235294 0.0
0.356863 0.0156863 0.0
0.447059 0.00392157 0.0
0.509804 0.00392157 0.00392157
0.576471 0.00392157 0.0
0.639216 0.00784314 0.00392157
0.701961 0.00784314 0.00392157
0.752941 0.00784314 0.00392157
0.807843 0.00784314 0.00392157
0.862745 0.0196078 0.00784314
0.917647 0.0313725 0.0117647
0.945098 0.0745098 0.0117647
0.0 0.0627451 0.0
0.0901961 0.0627451 0.00784314
0.129412 0.0627451 0.00784314
0.180392 0.0705882 0.00392157
0.239216 0.0705882 0.00392157
0.298039 0.0666667 0.0
0.372549 0.0627451 0.00392157
0.45098 0.054902 0.0
0.517647 0.0470588 0.0
0.576471 0.0509804 0.0
0.647059 0.0352941 0.0
0.698039 0.0392157 0.0
0.756863 0.0588235 0.0
0.811765 0.0705882 0.0
0.862745 0.0862745 0.0
0.917647 0.105882 0.0
0.960784 0.129412 0.0
0.00392157 0.0901961 0.0
0.0941176 0.0862745 0.0117647
0.133333 0.0901961 0.0156863
0.180392 0.0901961 0.00784314
0.235294 0.0901961 0.0
0.298039 0.0941176 0.0
0.372549 0.0862745 0.0
0.447059 0.0862745 0.0
0.517647 0.0901961 0.0
0.576471 0.0862745 0.0
0.639216 0.0784314 0.0
0.694118 0.0901961 0.0
0.756863 0.105882 0.0
0.811765 0.109804 0.00392157
0.858824 0.12549 0.0
0.917647 0.145098 0.0
0.952941 0.164706 0.0
0.00392157 0.121569 0.0156863
0.0823529 0.117647 0.0196078
0.133333 0.117647 0.0156863
0.180392 0.121569 0.00784314
0.239216 0.117647 0.0
0.305882 0.121569 0.00392157
0.368627 0.12549 0.0
0.435294 0.121569 0.0
0.509804 0.12549 0.0
0.576471 0.12549 0.0
0.639216 0.12549 0.00392157
0.690196 0.141176 0.0
0.752941 0.14902 0.0
0.8 0.156863 0.0
0.854902 0.168627 0.0
0.909804 0.188235 0.0
0.94902 0.207843 0.0
0.00784314 0.14902 0.0235294
0.0784314 0.152941 0.0196078
0.129412 0.152941 0.0235294
0.180392 0.14902 0.0117647
0.243137 0.145098 0.0
0.305882 0.156863 0.00392157
0.368627 0.156863 0.0
0.435294 0.164706 0.0
0.505882 0.160784 0.0
0.572549 0.168627 0.0
0.631373 0.176471 0.00392157
0.690196 0.188235 0.0
0.745098 0.196078 0.0
0.8 0.203922 0.0
0.854902 0.223529 0.0
0.905882 0.239216 0.0
0.945098 0.258824 0.0
0.00784314 0.192157 0.0313725
0.0627451 0.2 0.027451
0.12549 0.196078 0.0156863
0.180392 0.196078 0.00784314
0.243137 0.192157 0.00392157
0.309804 0.2 0.00784314
0.372549 0.203922 0.00392157
0.435294 0.203922 0.0
0.501961 0.207843 0.00392157
0.564706 0.215686 0.0
0.631373 0.223529 0.0
0.686275 0.235294 0.0
0.737255 0.243137 0.0
0.792157 0.254902 0.0
0.85098 0.266667 0.0
0.901961 0.286275 0.0
0.933333 0.305882 0.0
0.00392157 0.239216 0.0352941
0.0196078 0.243137 0.0196078
0.109804 0.25098 0.0235294
0.176471 0.25098 0.0196078
0.243137 0.25098 0.0156863
0.305882 0.243137 0.0
0.368627 0.243137 0.0
0.439216 0.247059 0.0
0.501961 0.254902 0.00392157
0.564706 0.262745 0.0
0.627451 0.270588 0.0
0.67451 0.27451 0.0
0.733333 0.290196 0.00392157
0.788235 0.305882 0.0
0.843137 0.313725 0.0
0.890196 0.329412 0.00392157
0.929412 0.352941 0.00392157
0.00784314 0.294118 0.0196078
0.00392157 0.301961 0.027451
0.0588235 0.305882 0.0117647
0.152941 0.305882 0.00784314
0.227451 0.301961 0.0
0.305882 0.301961 0.0
0.368627 0.301961 0.0
0.439216 0.301961 0.0
0.501961 0.309804 0.0
0.564706 0.317647 0.0
0.619608 0.317647 0.0
0.670588 0.333333 0.0
0.733333 0.337255 0.00392157
0.784314 0.352941 0.0
0.831373 0.368627 0.0
0.878431 0.384314 0.0
0.913725 0.396078 0.0
0.0117647 0.34902 0.0156863
0.0 0.352941 0.0
0.0 0.360784 0.00392157
0.137255 0.360784 0.0
0.215686 0.360784 0.0
0.286275 0.360784 0.0
0.364706 0.352941 0.0
0.435294 0.34902 0.0
0.494118 0.352941 0.00392157
0.54902 0.364706 0.0
0.615686 0.372549 0.0
0.670588 0.384314 0.00392157
0.72549 0.396078 0.00392157
0.776471 0.403922 0.0
0.823529 0.419608 0.0
0.878431 0.423529 0.0
0.921569 0.435294 0.0
0.0117647 0.407843 0.00784314
0.0 0.411765 0.0
0.0 0.411765 0.0
0.117647 0.411765 0.00392157
0.215686 0.415686 0.0
0.290196 0.423529 0.0
0.360784 0.423529 0.00392157
0.431373 0.411765 0.0
0.490196 0.415686 0.00392157
0.545098 0.419608 0.0
0.603922 0.423529 0.0
0.666667 0.431373 0.0
0.717647 0.447059 0.0
0.760784 0.45098 0.0
0.819608 0.462745 0.0
0.870588 0.478431 0.0
0.917647 0.482353 0.0
0.0156863 0.454902 0.00784314
0.0 0.466667 0.0
0.0 0.47451 0.00392157
0.00784314 0.478431 0.0
0.152941 0.482353 0.0
0.266667 0.482353 0.0
0.34902 0.482353 0.0
0.423529 0.47451 0.0
0.486275 0.47451 0.00392157
0.545098 0.47451 0.0
0.596078 0.47451 0.0
0.65098 0.478431 0.0
0.709804 0.490196 0.0
0.756863 0.505882 0.00392157
0.811765 0.509804 0.00392157
0.87451 0.521569 0.0
0.909804 0.521569 0.0
0.0156863 0.517647 0.0431373
0.0 0.52549 0.0352941
0.0 0.537255 0.027451
0.00392157 0.537255 0.0235294
0.0901961 0.545098 0.0
0.239216 0.545098 0.00392157
0.329412 0.537255 0.0
0.415686 0.533333 0.0
0.482353 0.533333 0.0
0.537255 0.533333 0.0
0.592157 0.529412 0.00392157
0.643137 0.529412 0.0
0.701961 0.541176 0.0
0.752941 0.54902 0.0
0.807843 0.552941 0.0
0.862745 0.560784 0.0
0.901961 0.560784 0.0
0.0156863 0.576471 0.101961
0.0 0.580392 0.0901961
0.0 0.588235 0.0823529
0.0 0.592157 0.0588235
0.0588235 0.596078 0.0352941
0.223529 0.6 0.00392157
0.313725 0.592157 0.0
0.403922 0.584314 0.0
0.478431 0.580392 0.0
0.541176 0.576471 0.0
0.596078 0.580392 0.00392157
0.65098 0.580392 0.00392157
0.705882 0.584314 0.0
0.752941 0.588235 0.00392157
0.807843 0.592157 0.0
0.847059 0.6 0.0
0.890196 0.603922 0.0
0.0156863 0.639216 0.160784
0.0 0.643137 0.152941
0.0 0.65098 0.145098
0.0470588 0.65098 0.121569
0.164706 0.65098 0.0901961
0.254902 0.643137 0.0196078
0.32549 0.647059 0.0
0.392157 0.647059 0.0
0.462745 0.643137 0.0
0.52549 0.639216 0.0
0.592157 0.631373 0.0
0.647059 0.631373 0.0
0.701961 0.627451 0.00392157
0.745098 0.627451 0.0
0.8 0.635294 0.00392157
0.847059 0.639216 0.0
0.886275 0.65098 0.0
0.0235294 0.701961 0.239216
0.0862745 0.709804 0.235294
0.141176 0.709804 0.227451
0.2 0.713725 0.219608
0.262745 0.713725 0.188235
0.313725 0.709804 0.152941
0.376471 0.701961 0.0980392
0.427451 0.701961 0.0352941
0.466667 0.694118 0.00392157
0.529412 0.686275 0.0
0.588235 0.67451 0.0
0.639216 0.67451 0.0
0.690196 0.67451 0.0
0.745098 0.67451 0.0
0.792157 0.682353 0.0
0.847059 0.678431 0.0
0.886275 0.682353 0.0
0.207843 0.756863 0.321569
0.235294 0.764706 0.317647
0.262745 0.768627 0.317647
0.301961 0.768627 0.294118
0.341176 0.764706 0.270588
0.384314 0.764706 0.235294
0.427451 0.756863 0.192157
0.470588 0.745098 0.129412
0.505882 0.745098 0.0784314
0.537255 0.745098 0.00392157
0.592157 0.737255 0.00392157
0.639216 0.72549 0.0
0.694118 0.729412 0.0
0.741176 0.729412 0.0
0.792157 0.729412 0.0
0.839216 0.72549 0.0
0.878431 0.72549 0.0
0.32549 0.803922 0.380392
0.341176 0.807843 0.372549
0.356863 0.811765 0.368627
0.376471 0.811765 0.34902
0.407843 0.803922 0.329412
0.443137 0.803922 0.294118
0.478431 0.803922 0.266667
0.505882 0.8 0.243137
0.545098 0.796078 0.196078
0.576471 0.788235 0.14902
0.615686 0.784314 0.105882
0.658824 0.780392 0.0156863
0.701961 0.772549 0.0
0.74902 0.772549 0.0
0.792157 0.764706 0.0
0.839216 0.764706 0.0
0.878431 0.764706 0.0
0.00392157 0.0 0.0392157
0.0745098 0.0196078 0.0392157
0.12549 0.027451 0.0313725
0.168627 0.0352941 0.0352941
0.231373 0.0313725 0.0392157
0.298039 0.0313725 0.0392157
0.372549 0.027451 0.0313725
0.443137 0.0235294 0.0470588
0.521569 0.0117647 0.0470588
0.580392 0.0156863 0.0470588
0.647059 0.00784314 0.0352941
0.705882 0.0196078 0.0313725
0.760784 0.0313725 0.027451
0.815686 0.0509804 0.0235294
0.87451 0.0627451 0.0156863
0.917647 0.0901961 0.00784314
0.937255 0.105882 0.0196078
0.0 0.0627451 0.0392157
0.0941176 0.0784314 0.0588235
0.137255 0.0823529 0.0588235
0.196078 0.0784314 0.0588235
0.258824 0.0823529 0.054902
0.32549 0.0823529 0.054902
0.396078 0.0784314 0.0509804
0.462745 0.0745098 0.054902
0.529412 0.0705882 0.0509804
0.596078 0.0784314 0.0509804
0.654902 0.0784314 0.0352941
0.713725 0.0823529 0.0313725
0.764706 0.0980392 0.0235294
0.823529 0.105882 0.0196078
0.878431 0.12549 0.00392157
0.92549 0.145098 0.00392157
0.94902 0.14902 0.0117647
0.027451 0.0941176 0.0470588
0.105882 0.101961 0.0666667
0.14902 0.109804 0.0666667
0.2 0.109804 0.0627451
0.262745 0.109804 0.0588235
0.321569 0.109804 0.0588235
0.396078 0.105882 0.054902
0.466667 0.105882 0.0588235
0.533333 0.109804 0.0509804
0.596078 0.109804 0.0509804
0.654902 0.109804 0.0352941
0.713725 0.121569 0.027451
0.768627 0.137255 0.0196078
0.827451 0.145098 0.0156863
0.87451 0.160784 0.00392157
0.921569 0.180392 0.00392157
0.94902 0.188235 0.0156863
0.0156863 0.121569 0.0509804
0.0941176 0.137255 0.0666667
0.141176 0.137255 0.0666667
0.196078 0.137255 0.0627451
0.25098 0.137255 0.054902
0.317647 0.137255 0.0509804
0.388235 0.145098 0.0509804
0.454902 0.145098 0.0431373
0.529412 0.152941 0.0509804
0.592157 0.14902 0.0392157
0.65098 0.156863 0.027451
0.705882 0.164706 0.0196078
0.756863 0.176471 0.0156863
0.815686 0.188235 0.00392157
0.866667 0.203922 0.0
0.921569 0.223529 0.0
0.945098 0.231373 0.0117647
0.0 0.152941 0.0588235
0.0823529 0.168627 0.0705882
0.141176 0.180392 0.0705882
0.196078 0.172549 0.0588235
0.258824 0.176471 0.054902
0.321569 0.176471 0.054902
0.384314 0.176471 0.0509804
0.458824 0.188235 0.054902
0.52549 0.188235 0.0431373
0.592157 0.192157 0.0313725
0.647059 0.196078 0.0196078
0.705882 0.207843 0.0156863
0.760784 0.219608 0.0117647
0.815686 0.227451 0.00392157
0.866667 0.243137 0.0
0.917647 0.258824 0.0
0.945098 0.27451 0.0156863
0.0 0.2 0.0627451
0.0666667 0.215686 0.0745098
0.133333 0.223529 0.0705882
0.192157 0.223529 0.0705882
0.258824 0.219608 0.0588235
0.317647 0.219608 0.054902
0.384314 0.223529 0.0509804
0.454902 0.223529 0.0431373
0.513725 0.235294 0.027451
0.572549 0.243137 0.0235294
0.643137 0.247059 0.0156863
0.694118 0.254902 0.00392157
0.745098 0.266667 0.0
0.803922 0.282353 0.00392157
0.858824 0.294118 0.0
0.905882 0.305882 0.0
0.937255 0.321569 0.0156863
0.0 0.243137 0.0705882
0.00784314 0.266667 0.0745098
0.109804 0.27451 0.0745098
0.180392 0.278431 0.0745098
0.25098 0.270588 0.0627451
0.317647 0.266667 0.0509804
0.380392 0.270588 0.0431373
0.447059 0.27451 0.0392157
0.517647 0.282353 0.027451
0.580392 0.282353 0.0235294
0.635294 0.298039 0.0117647
0.690196 0.298039 0.00392157
0.741176 0.313725 0.0
0.796078 0.32549 0.0
0.85098 0.341176 0.00392157
0.898039 0.352941 0.00392157
0.929412 0.372549 0.0156863
0.0 0.301961 0.054902
0.0 0.313725 0.0627451
0.0666667 0.321569 0.0666667
0.168627 0.333333 0.0627451
0.239216 0.329412 0.054902
0.313725 0.329412 0.0509804
0.380392 0.32549 0.0352941
0.447059 0.32549 0.027451
0.505882 0.333333 0.0235294
0.572549 0.337255 0.0117647
0.631373 0.345098 0.00392157
0.682353 0.356863 0.0
0.741176 0.360784 0.0
0.792157 0.376471 0.0
0.839216 0.384314 0.0
0.882353 0.4 0.0
0.92549 0.411765 0.0117647
0.0 0.352941 0.054902
0.00392157 0.368627 0.0666667
0.00784314 0.380392 0.0745098
0.12549 0.392157 0.0666667
0.215686 0.384314 0.0431373
0.294118 0.388235 0.0352941
0.376471 0.380392 0.0196078
0.443137 0.376471 0.00784314
0.505882 0.380392 0.0
0.564706 0.392157 0.00392157
0.619608 0.396078 0.00392157
0.678431 0.407843 0.0
0.729412 0.415686 0.0
0.784314 0.419608 0.0
0.835294 0.435294 0.0
0.882353 0.447059 0.0
0.921569 0.454902 0.0117647
0.0 0.407843 0.0470588
0.0 0.427451 0.054902
0.00392157 0.435294 0.0392157
0.113725 0.435294 0.0509804
0.215686 0.439216 0.0431373
0.290196 0.443137 0.027451
0.372549 0.439216 0.00784314
0.439216 0.435294 0.0
0.501961 0.431373 0.0
0.560784 0.439216 0.00392157
0.615686 0.447059 0.0
0.67451 0.454902 0.00392157
0.721569 0.462745 0.0
0.768627 0.47451 0.0
0.823529 0.478431 0.0
0.882353 0.490196 0.0
0.917647 0.498039 0.0117647
0.0 0.462745 0.0509804
0.0 0.47451 0.0588235
0.0 0.486275 0.0666667
0.00392157 0.494118 0.0509804
0.180392 0.498039 0.0470588
0.270588 0.501961 0.0235294
0.360784 0.501961 0.0
0.427451 0.494118 0.0
0.494118 0.494118 0.0
0.552941 0.490196 0.0
0.603922 0.490196 0.0
0.662745 0.501961 0.0
0.721569 0.505882 0.0
0.772549 0.517647 0.00392157
0.815686 0.529412 0.0
0.878431 0.533333 0.0
0.909804 0.545098 0.0117647
0.0 0.513725 0.0666667
0.0 0.52549 0.0745098
0.0 0.537255 0.0745098
0.0 0.545098 0.0745098
0.117647 0.552941 0.0588235
0.25098 0.556863 0.0392157
0.341176 0.552941 0.0196078
0.423529 0.556863 0.00392157
0.490196 0.54902 0.0
0.545098 0.541176 0.0
0.603922 0.545098 0.0
0.654902 0.545098 0.0
0.713725 0.556863 0.0
0.760784 0.564706 0.0
0.815686 0.572549 0.0
0.866667 0.576471 0.0
0.901961 0.580392 0.0117647
0.0 0.576471 0.109804
0.0 0.584314 0.113725
0.0 0.592157 0.105882
0.00392157 0.596078 0.105882
0.0666667 0.6 0.0901961
0.223529 0.603922 0.0627451
0.333333 0.603922 0.0196078
0.415686 0.6 0.0
0.482353 0.592157 0.0
0.545098 0.596078 0.0
0.596078 0.596078 0.0
0.65098 0.6 0.0
0.705882 0.6 0.0
0.760784 0.6 0.0
0.807843 0.607843 0.0
0.854902 0.615686 0.0
0.890196 0.619608 0.0117647
0.0 0.639216 0.172549
0.0 0.647059 0.172549
0.0 0.647059 0.160784
0.0 0.65098 0.145098
0.12549 0.65098 0.117647
0.231373 0.65098 0.0823529
0.32549 0.654902 0.027451
0.403922 0.654902 0.0
0.47451 0.65098 0.0
0.533333 0.647059 0.0
0.592157 0.65098 0.0
0.65098 0.647059 0.0
0.694118 0.647059 0.0
0.745098 0.647059 0.0
0.8 0.65098 0.0
0.85098 0.65098 0.0
0.890196 0.658824 0.0156863
0.0 0.701961 0.25098
0.0156863 0.709804 0.247059
0.109804 0.709804 0.239216
0.172549 0.717647 0.239216
0.235294 0.717647 0.219608
0.290196 0.713725 0.184314
0.360784 0.709804 0.133333
0.415686 0.701961 0.0901961
0.47451 0.701961 0.0117647
0.529412 0.698039 0.0
0.592157 0.686275 0.0
0.65098 0.682353 0.0
0.698039 0.690196 0.00392157
0.74902 0.686275 0.0
0.796078 0.686275 0.0
0.85098 0.690196 0.00392157
0.886275 0.694118 0.0156863
0.184314 0.760784 0.329412
0.215686 0.768627 0.321569
0.25098 0.768627 0.317647
0.286275 0.772549 0.313725
0.32549 0.768627 0.290196
0.372549 0.764706 0.258824
0.415686 0.760784 0.215686
0.458824 0.752941 0.168627
0.498039 0.74902 0.113725
0.541176 0.745098 0.0509804
0.592157 0.737255 0.00392157
0.647059 0.737255 0.00392157
0.698039 0.737255 0.0
0.745098 0.741176 0.0
0.792157 0.737255 0.0
0.843137 0.737255 0.0
0.882353 0.737255 0.0196078
0.301961 0.811765 0.384314
0.321569 0.811765 0.380392
0.341176 0.811765 0.368627
0.368627 0.811765 0.368627
0.396078 0.807843 0.34902
0.435294 0.807843 0.317647
0.466667 0.803922 0.286275
0.501961 0.8 0.254902
0.537255 0.796078 0.215686
0.572549 0.796078 0.164706
0.611765 0.792157 0.113725
0.65098 0.784314 0.0509804
0.698039 0.776471 0.0
0.74902 0.772549 0.0
0.792157 0.776471 0.0
0.843137 0.776471 0.0
0.87451 0.776471 0.0196078
0.027451 0.0117647 0.0627451
0.0705882 0.0196078 0.0666667
0.101961 0.0313725 0.0588235
0.152941 0.0431373 0.054902
0.203922 0.0431373 0.054902
0.282353 0.0352941 0.054902
0.345098 0.0352941 0.0627451
0.423529 0.0352941 0.0627451
0.494118 0.0352941 0.0666667
0.568627 0.0352941 0.0666667
0.643137 0.0235294 0.0705882
0.709804 0.0313725 0.0627451
0.760784 0.0666667 0.0666667
0.819608 0.0823529 0.054902
0.878431 0.0901961 0.0627451
0.92549 0.117647 0.0509804
0.952941 0.129412 0.054902
0.027451 0.0627451 0.0705882
0.0980392 0.0784314 0.0745098
0.129412 0.0862745 0.0784314
0.188235 0.0862745 0.0784314
0.25098 0.0862745 0.0823529
0.32549 0.0823529 0.0784314
0.392157 0.0901961 0.0823529
0.462745 0.0862745 0.0784314
0.529412 0.0862745 0.0784314
0.592157 0.0941176 0.0705882
0.658824 0.0901961 0.0705882
0.713725 0.101961 0.0705882
0.772549 0.12549 0.0705882
0.823529 0.133333 0.0627451
0.882353 0.141176 0.0666667
0.933333 0.164706 0.054902
0.968627 0.168627 0.0509804
0.0392157 0.0823529 0.0705882
0.101961 0.101961 0.0862745
0.14902 0.117647 0.0901961
0.207843 0.117647 0.0941176
0.270588 0.113725 0.0901961
0.337255 0.121569 0.0862745
0.4 0.121569 0.0862745
0.478431 0.12549 0.0862745
0.537255 0.12549 0.0862745
0.6 0.129412 0.0823529
0.666667 0.129412 0.0784314
0.721569 0.141176 0.0705882
0.772549 0.156863 0.0705882
0.831373 0.168627 0.0666667
0.886275 0.180392 0.0666667
0.933333 0.2 0.054902
0.972549 0.203922 0.054902
0.0431373 0.117647 0.0784314
0.109804 0.129412 0.0823529
0.152941 0.14902 0.0941176
0.207843 0.152941 0.0901961
0.270588 0.156863 0.0941176
0.333333 0.156863 0.0823529
0.403922 0.160784 0.0862745
0.478431 0.164706 0.0862745
0.537255 0.168627 0.0784314
0.607843 0.168627 0.0784314
0.670588 0.176471 0.0745098
0.713725 0.188235 0.0666667
0.772549 0.2 0.0627451
0.823529 0.207843 0.0588235
0.87451 0.223529 0.054902
0.929412 0.243137 0.0470588
0.968627 0.25098 0.0470588
0.027451 0.152941 0.0784314
0.101961 0.176471 0.0901961
0.14902 0.188235 0.0980392
0.215686 0.188235 0.0980392
0.266667 0.188235 0.0941176
0.333333 0.192157 0.0862745
0.4 0.196078 0.0862745
0.466667 0.2 0.0901961
0.537255 0.2 0.0823529
0.596078 0.211765 0.0784314
0.654902 0.215686 0.0705882
0.713725 0.231373 0.0627451
0.772549 0.239216 0.0588235
0.823529 0.247059 0.0509804
0.87451 0.262745 0.0470588
0.917647 0.282353 0.0431373
0.956863 0.290196 0.0431373
0.027451 0.192157 0.0784314
0.0784314 0.219608 0.0901961
0.137255 0.235294 0.101961
0.203922 0.243137 0.101961
0.262745 0.239216 0.0901961
0.333333 0.239216 0.0862745
0.396078 0.239216 0.0784314
0.466667 0.243137 0.0745098
0.529412 0.247059 0.0666667
0.588235 0.258824 0.0705882
0.647059 0.262745 0.0627451
0.709804 0.27451 0.0588235
0.756863 0.282353 0.0509804
0.811765 0.298039 0.0392157
0.866667 0.305882 0.0313725
0.921569 0.321569 0.0313725
0.956863 0.337255 0.0313725
0.027451 0.247059 0.0901961
0.0392157 0.266667 0.0941176
0.117647 0.282353 0.109804
0.188235 0.294118 0.109804
0.254902 0.294118 0.101961
0.32549 0.290196 0.0823529
0.396078 0.286275 0.0823529
0.462745 0.294118 0.0784314
0.521569 0.298039 0.0705882
0.588235 0.305882 0.0666667
0.639216 0.313725 0.0588235
0.698039 0.321569 0.0392157
0.756863 0.333333 0.0392157
0.807843 0.341176 0.027451
0.854902 0.352941 0.0156863
0.909804 0.372549 0.0117647
0.945098 0.388235 0.0196078
0.0235294 0.301961 0.0823529
0.00392157 0.32549 0.0980392
0.0823529 0.341176 0.105882
0.176471 0.34902 0.0980392
0.247059 0.352941 0.0980392
0.32549 0.345098 0.0823529
0.392157 0.341176 0.0745098
0.454902 0.341176 0.0666667
0.513725 0.34902 0.0705882
0.576471 0.352941 0.0509804
0.639216 0.360784 0.0470588
0.694118 0.372549 0.0392157
0.74902 0.380392 0.0235294
0.8 0.388235 0.00784314
0.847059 0.403922 0.0
0.898039 0.415686 0.0
0.937255 0.427451 0.0
0.027451 0.360784 0.0823529
0.0 0.380392 0.0980392
0.00392157 0.392157 0.0941176
0.141176 0.4 0.0941176
0.227451 0.403922 0.0941176
0.317647 0.403922 0.0941176
0.380392 0.4 0.0823529
0.447059 0.4 0.0588235
0.513725 0.4 0.054902
0.568627 0.403922 0.0509804
0.631373 0.407843 0.0392157
0.686275 0.423529 0.0352941
0.741176 0.431373 0.0196078
0.788235 0.435294 0.0
0.839216 0.45098 0.00392157
0.894118 0.458824 0.0
0.933333 0.470588 0.0
0.027451 0.415686 0.0823529
0.0 0.435294 0.0941176
0.0 0.447059 0.0980392
0.101961 0.45098 0.109804
0.219608 0.462745 0.101961
0.298039 0.462745 0.0901961
0.376471 0.454902 0.0666667
0.443137 0.458824 0.0431373
0.505882 0.454902 0.0313725
0.564706 0.45098 0.0313725
0.619608 0.462745 0.0313725
0.678431 0.470588 0.0117647
0.733333 0.478431 0.0
0.784314 0.486275 0.0
0.835294 0.494118 0.0
0.886275 0.509804 0.0
0.929412 0.513725 0.0
0.027451 0.462745 0.0823529
0.0 0.478431 0.0980392
0.0 0.490196 0.105882
0.00784314 0.501961 0.105882
0.180392 0.509804 0.105882
0.282353 0.517647 0.0862745
0.368627 0.509804 0.0705882
0.439216 0.509804 0.054902
0.501961 0.509804 0.0313725
0.560784 0.509804 0.0156863
0.611765 0.505882 0.0
0.666667 0.517647 0.0
0.721569 0.52549 0.0
0.780392 0.529412 0.0
0.827451 0.537255 0.0
0.886275 0.54902 0.0
0.92549 0.54902 0.0
0.027451 0.521569 0.0823529
0.0 0.533333 0.101961
0.00392157 0.541176 0.109804
0.00392157 0.54902 0.105882
0.137255 0.560784 0.101961
0.262745 0.564706 0.0901961
0.352941 0.568627 0.0862745
0.427451 0.568627 0.0666667
0.490196 0.564706 0.027451
0.552941 0.556863 0.0
0.611765 0.552941 0.0
0.662745 0.560784 0.0
0.717647 0.564706 0.0
0.768627 0.572549 0.0
0.827451 0.584314 0.0
0.866667 0.592157 0.0
0.905882 0.592157 0.0
0.027451 0.572549 0.113725
0.0 0.588235 0.133333
0.00392157 0.592157 0.137255
0.0 0.6 0.133333
0.0901961 0.607843 0.12549
0.243137 0.611765 0.109804
0.337255 0.615686 0.0862745
0.423529 0.607843 0.0509804
0.486275 0.603922 0.00392157
0.545098 0.607843 0.0
0.6 0.603922 0.00392157
0.658824 0.611765 0.0
0.713725 0.607843 0.00392157
0.760784 0.611765 0.0
0.811765 0.623529 0.0
0.866667 0.631373 0.0
0.901961 0.631373 0.0
0.0313725 0.639216 0.180392
0.0 0.643137 0.184314
0.0 0.65098 0.180392
0.00392157 0.658824 0.172549
0.105882 0.662745 0.152941
0.227451 0.666667 0.12549
0.32549 0.666667 0.105882
0.407843 0.666667 0.0941176
0.482353 0.666667 0.0705882
0.537255 0.662745 0.0470588
0.6 0.658824 0.00784314
0.65098 0.658824 0.0
0.701961 0.654902 0.0
0.756863 0.654902 0.0
0.807843 0.654902 0.0
0.854902 0.666667 0.0
0.894118 0.670588 0.0
0.027451 0.701961 0.247059
0.00392157 0.705882 0.254902
0.0392157 0.709804 0.254902
0.133333 0.713725 0.247059
0.215686 0.717647 0.227451
0.27451 0.717647 0.207843
0.34902 0.717647 0.168627
0.411765 0.713725 0.117647
0.47451 0.709804 0.0745098
0.537255 0.709804 0.0470588
0.596078 0.701961 0.00392157
0.65098 0.694118 0.0
0.705882 0.698039 0.0
0.74902 0.698039 0.0
0.803922 0.698039 0.0
0.858824 0.701961 0.0
0.894118 0.705882 0.0
0.168627 0.760784 0.329412
0.2 0.764706 0.329412
0.235294 0.768627 0.329412
0.266667 0.772549 0.317647
0.309804 0.768627 0.301961
0.352941 0.772549 0.270588
0.403922 0.764706 0.239216
0.447059 0.760784 0.192157
0.494118 0.756863 0.145098
0.545098 0.756863 0.0941176
0.596078 0.745098 0.0235294
0.647059 0.741176 0.00392157
0.698039 0.745098 0.0
0.752941 0.74902 0.0
0.803922 0.745098 0.0
0.85098 0.745098 0.0
0.898039 0.745098 0.0
0.298039 0.807843 0.388235
0.309804 0.815686 0.388235
0.329412 0.811765 0.388235
0.360784 0.815686 0.372549
0.392157 0.811765 0.364706
0.419608 0.815686 0.337255
0.462745 0.811765 0.301961
0.494118 0.807843 0.27451
0.533333 0.8 0.235294
0.564706 0.803922 0.203922
0.611765 0.792157 0.141176
0.65098 0.792157 0.0784314
0.698039 0.784314 0.0
0.752941 0.784314 0.0
0.8 0.788235 0.0
0.839216 0.788235 0.0
0.882353 0.784314 0.0
0.0 0.00784314 0.0862745
0.0509804 0.027451 0.0941176
0.0941176 0.0392157 0.0862745
0.133333 0.0470588 0.0784314
0.192157 0.0431373 0.0745098
0.25098 0.0392157 0.0745098
0.329412 0.0470588 0.0784314
0.396078 0.0509804 0.0862745
0.482353 0.0431373 0.0784314
0.54902 0.054902 0.0901961
0.623529 0.0470588 0.0941176
0.686275 0.0509804 0.0980392
0.756863 0.0745098 0.0941176
0.807843 0.0941176 0.0980392
0.870588 0.105882 0.101961
0.921569 0.141176 0.105882
0.941176 0.164706 0.105882
0.0 0.0666667 0.0941176
0.0862745 0.0784314 0.105882
0.129412 0.0862745 0.0980392
0.168627 0.0901961 0.101961
0.227451 0.0941176 0.0980392
0.298039 0.0941176 0.101961
0.364706 0.0980392 0.101961
0.439216 0.0941176 0.101961
0.517647 0.101961 0.0980392
0.584314 0.105882 0.105882
0.65098 0.105882 0.105882
0.709804 0.113725 0.105882
0.768627 0.133333 0.109804
0.831373 0.145098 0.113725
0.886275 0.164706 0.109804
0.933333 0.188235 0.109804
